X:1
T:Franciscan Lauda
T:Franciscan Lauda
T:Anonymous (Mid-15th century)
T:© 2012 by Paul R Marchesano. May be freely copied for nonprofit use.
C:Anonymous
C:(Mid-15th century)
Z:© 2012 by Paul R Marchesano. May be freely copied for nonprofit use.
%%score [ 1 2 ]
L:1/8
Q:1/4=200
M:3/2
K:C
V:1 treble-8 nm="Tenor" snm="T"
V:2 bass nm="Bass" snm="B"
V:1
 F4 G4 A4 | _B4 B4 c4 | c4 c4 c4 | c4 _B4 c4 | c4 d2 c2 B2 A2 | G4 F4 z4 | c4 c4 B4 | c4 d4 e4 | %8
w: Lau- di- a-|mo Je- sù,|E la su-|a san- cta|ma- * * * *|* dre,|Lo hu- me-|le Fran- sci-|
 d2 c2 _B2 A2 _B4 | F4 F4 F4 | G2 A2 A4 =B4 | d2 c2 c2 =B2 B2 A2 | A2 G2 !fermata!F8 |] %13
w: * * * * sco,|No- stro de-|vo- * to pa-||* * dre.|
V:2
 F,4 G,4 A,4 | G,4 G,4 F,4 | F,4 F,4 F,4 | F,4 F,4 E,4 | E,4 D,4 E,4 | E,4 F,4 z4 | F,4 F,4 E,4 | %7
 F,4 F,4 E,4 | D,4 C,4 _B,,4 | F,4 F,4 F,4 | E,4 D,4 G,,4- | G,,4 D,4 C,4 | _B,,4 !fermata!A,,8 |] %13

